src/asset/24px/bell.svg

<svg fill="none" height="24" viewBox="0 0 24 24" width="24" xmlns="http://www.w3.org/2000/svg"><path clip-rule="evenodd" d="m9 19h-1.83041c-2.30346 0-3.74757-2.4884-2.60473-4.4884l1.03992-1.8199c.25903-.4533.39527-.9663.39527-1.4884v-3.2033c0-3.31371 2.6863-6 6.00005-6 3.3137 0 6 2.68629 6 6v3.2033c0 .5221.1362 1.0351.3952 1.4884l1.0399 1.8199c1.1429 2-.3012 4.4884-2.6047 4.4884h-1.8305c0 1.6569-1.3431 3-3 3s-3-1.3431-3-3zm3.0001-15c2.2091 0 4 1.79086 4 4v3.2033c0 .8701.227 1.7252.6587 2.4807l1.04 1.8199c.3809.6666-.1005 1.4961-.8683 1.4961h-9.66091c-.76782 0-1.24919-.8295-.86824-1.4961l1.03992-1.8199c.43171-.7555.65878-1.6106.65878-2.4807v-3.2033c0-2.20914 1.79087-4 4.00005-4zm-.0001 16c-.5523 0-1-.4477-1-1h2c0 .5523-.4477 1-1 1z" fill="currentColor" fill-rule="evenodd"/></svg>

<svg fill="none" height="24" width="24" xmlns="http://www.w3.org/2000/svg"><path clip-rule="evenodd" d="M9 19H7.17c-2.304 0-3.748-2.488-2.605-4.488l1.04-1.82A3 3 0 006 11.203V8a6 6 0 0112 0v3.203a3 3 0 00.395 1.489l1.04 1.82c1.143 2-.301 4.488-2.605 4.488H15a3 3 0 11-6 0zm3-15a4 4 0 014 4v3.203a5 5 0 00.659 2.481l1.04 1.82A1 1 0 0116.83 17H7.17a1 1 0 01-.869-1.496l1.04-1.82A5 5 0 008 11.204V8a4 4 0 014-4zm0 16a1 1 0 01-1-1h2a1 1 0 01-1 1z" fill="currentColor" fill-rule="evenodd"/></svg>
